X:7823
T:Uvyvanets'
O:england
S:A. Humenyuk
Q:140
M:2/4
L:1/8
K:C#m
ccGG | c c2 G | cc^Bd | c2 =B2 |:\
AAFF | G G2 E | FFED | C2 C2 :|
P: Variation
K:C
c3/2B/4A/4 GA/2B/2 |  c3/2B/4A/4 GA/2B/2 |\
c3/2B/4A/4 GA/2B/2 | c2{BA}G2 |: \
F3/2E/4D/4 CD/2E/2 |  F3/2E/4D/4 CD/2E/2 | \
F_AGF | c2c2 :|


